assets/flags/Nilssonianism.svg

<svg xmlns="http://www.w3.org/2000/svg" xml:space="preserve" id="svg1" width="4608" height="3072" version="1.1" viewBox="0 0 1219.2 812.8"><defs id="defs1"><style id="style1">.cls-1{fill:#0283c0}.cls-2{fill:#fff}.cls-3{fill:#ef483f}</style></defs><path id="rect1" d="M 0 0 L 0 812.8 L 1219.2 812.8 L 1219.2 0 L 0 0 z" style="fill:#000;fill-rule:evenodd;stroke:none;stroke-width:8.46667;stroke-linecap:round;stroke-linejoin:round;fill-opacity:1"/><path id="path2" d="m 315.71397,101.6 a 10.886971,10.886971 0 0 0 -10.88588,10.88587 v 38.31397 a 10.886971,10.886971 0 0 0 3.1687,7.67997 l 416.36755,418.42837 -6.38529,6.53791 c -3.0255,3.09748 -6.02174,6.35266 -8.48028,9.18952 -1.30566,1.50657 -2.44265,2.9194 -3.30618,4.02906 -0.43176,0.55483 -0.79344,1.02971 -1.08508,1.42375 -0.29163,0.39405 0.18022,-0.5991 -1.09649,1.6303 -8.94756,15.62423 -9.03144,35.42794 -0.0661,50.84913 3.81456,6.56159 8.34988,10.69467 12.86928,15.33181 a 10.886971,10.886971 0 0 0 0.1002,0.1002 l 7.98975,8.08772 c 4.83455,4.8938 7.90154,7.88704 12.2717,10.15919 3.52118,1.8308 8.78795,2.5013 12.86015,2.20437 11.68198,-0.85185 21.82543,-11.0096 22.66399,-22.69589 a 10.886971,10.886971 0 0 0 0,-7.5e-4 10.886971,10.886971 0 0 0 0,-7.7e-4 10.886971,10.886971 0 0 0 0,-7.6e-4 c 0.14655,-2.04234 0.32782,-3.83455 0.0151,-6.34579 -0.31297,-2.51121 -1.39006,-5.19347 -2.36229,-6.9396 -2.6045,-4.67758 -5.91111,-7.92136 -12.03932,-14.18899 -2.91729,-2.98358 -5.65991,-5.93858 -7.67996,-8.23656 -1.01757,-1.15757 -1.83499,-2.12975 -2.36761,-2.80652 -0.147,-0.18685 -0.007,0.0282 -0.10935,-0.0918 0.17691,-0.39316 0.58609,-1.05224 1.90895,-2.12387 7.96625,-6.45337 18.60926,-8.78507 28.13959,-6.28278 4.13501,1.0857 6.31973,1.9221 10.26323,4.95925 4.15254,3.1981 10.17928,8.9729 20.75197,19.48691 a 10.886971,10.886971 0 0 0 0.003,0 l 17.94318,17.83992 -0.1146,0.69176 c -0.74869,4.51761 -1.15327,8.79139 0.066,13.41371 1.21965,4.62329 4.11979,8.40989 6.93049,11.16153 5.64818,5.52938 11.98399,7.69263 19.67902,6.95098 4.24523,11.43443 15.17018,19.27987 27.54047,19.90608 2.35151,0.11895 4.46039,0.0237 6.28202,-0.16403 1.82158,-0.18769 2.59128,-0.0609 5.43838,-1.13065 9.66378,-3.63066 17.23218,-11.4714 20.08147,-21.14303 2.79995,-9.50415 1.02801,-20.00818 -4.77016,-27.95583 -2.2522,-3.0871 -4.66016,-5.19485 -7.65414,-7.32383 -1.63217,-1.16059 -3.15751,-2.01878 -4.53173,-2.69489 -0.78624,-0.38682 -1.299,-0.69027 -2.07451,-0.99321 l 0.0312,-0.64544 c 0.16276,-3.41825 0.1368,-6.9467 -1.25367,-10.72794 -1.39049,-3.78122 -3.89137,-6.64432 -6.16204,-8.81668 -3.73205,-3.5706 -7.5142,-5.13346 -12.18587,-6.14761 -3.86232,-0.83845 -7.25221,-0.83142 -11.07191,0.14355 -0.1951,-0.1458 -0.10125,-0.0287 -1.00461,-0.82921 -2.70395,-2.39638 -7.84671,-7.53929 -17.26281,-17.09651 -15.39563,-15.62646 -20.41851,-21.45565 -21.59029,-23.79996 -7.04662,-14.09774 -5.22232,-26.55746 6.25923,-39.6428 9.04749,-10.31128 13.48365,-21.86134 13.50258,-35.25458 0.015,-9.9105 -2.85018,-19.74541 -8.21606,-27.8723 -1.91448,-2.89955 -3.55778,-4.52284 -6.29947,-7.52506 -2.74169,-3.00219 -6.07451,-6.49397 -9.38542,-9.76356 -3.25999,-3.21931 -6.4995,-6.28624 -9.25787,-8.72785 -1.38013,-1.22167 -2.60429,-2.26421 -3.7481,-3.15431 -0.55169,-0.42928 -0.80712,-0.57657 -1.16406,-0.81247 0.25777,0.22569 0.33795,0.25233 1.00536,0.94156 0.27756,0.28664 1.15782,1.41324 1.15723,1.41238 -2.8e-4,-4.2e-4 0.89238,1.57297 0.89222,1.57261 -2e-5,-4e-5 0.0905,0.30989 0.11775,0.40167 a 10.886971,10.886971 0 0 0 -5.60772,-5.7968 c -0.15015,-0.0631 -0.18426,-0.10485 -0.94689,-0.35613 -0.19068,-0.0628 -0.42921,-0.144 -0.91045,-0.25816 -0.24063,-0.0571 -0.54166,-0.12735 -1.00992,-0.19288 -0.0338,-0.005 -0.11505,-9e-4 -0.16098,-0.006 -2.7474,-0.68307 -4.93876,-0.76395 -7.26383,-0.71759 -3.15515,0.0629 -5.55975,-0.24177 -10.2283,1.93708 -8.35078,3.8974 -14.19733,13.70998 -14.19735,23.2669 0,3.55139 1.29477,9.06735 3.52408,12.65362 2.66307,4.28403 6.29135,8.17286 12.36356,14.40695 3.51181,3.60539 6.00668,6.11733 7.44456,7.86599 1.4665,1.78347 1.19602,1.80689 1.19445,1.41845 a 10.886971,10.886971 0 0 0 0,0.003 c -10e-4,-0.43041 0.27472,-0.39558 -1.14281,1.32352 -1.41433,1.71519 -3.88247,4.18152 -7.36711,7.73462 l -5.9631,6.08384 L 362.22956,104.80896 A 10.886971,10.886971 0 0 0 354.51238,101.6 Z m 489.51617,347.46892 c -0.22404,-0.14805 -0.63206,-0.44733 -0.7305,-0.51028 -0.0637,-0.0408 -0.1017,-0.0657 -0.012,-0.006 0.0633,0.0419 0.14205,-0.009 0.74187,0.51636 z" style="display:inline;fill:#fff;fill-opacity:1;stroke:none;stroke-width:1"/><path id="path3" d="M 221.65849,80.433552 506.46396,366.73087 c 2.01504,-2.02887 4.03469,-4.05349 6.0418,-6.0904 L 233.6682,80.433552 Z m -5.80693,6.063074 V 98.398007 L 495.5725,377.70991 c 1.66756,-1.68654 3.33925,-3.36901 5.01113,-5.05112 z M 528.58301,309.9019 c -2.4723,10e-6 -4.0878,1.58789 -4.08778,4.01843 10e-6,1.44012 1.16539,2.91312 7.09629,8.97387 3.90256,3.98805 7.63587,8.33127 8.29654,9.65172 1.45119,2.90045 1.59832,7.79316 0.32702,10.87627 -1.69982,4.12238 -57.62475,58.12206 -60.45457,63.84425 -2.79749,5.657 -2.81224,13.46948 -0.0355,18.99311 2.83897,5.64733 4.54486,6.02098 7.05225,8.8296 1.56157,1.74917 4.96354,4.98025 4.96354,4.98025 4.28901,4.30344 5.225,4.98026 6.88772,4.98026 2.57522,0 3.99313,-1.38914 3.99311,-3.91162 0,-1.83047 -0.70085,-2.73786 -7.33522,-9.49174 -4.21961,-4.29566 -7.70421,-8.35597 -8.20289,-9.55906 -1.11465,-2.68916 -1.11089,-7.84567 0.007,-10.55786 0.59968,-1.45433 9.99714,-11.34265 29.92507,-31.48779 22.9011,-23.15074 29.39162,-30.0314 30.65959,-32.50377 1.46666,-2.8599 1.6086,-3.66397 1.61233,-9.12373 0.006,-8.70009 -0.97044,-10.54586 -10.90614,-20.6267 -7.10504,-7.2088 -7.94586,-7.88546 -9.79851,-7.88549 z m 4.86939,65.55935 -21.87708,22.08261 4.19055,0.35689 c 2.30482,0.19637 5.73915,0.84286 7.63187,1.43667 l 3.44132,1.07978 9.513,-9.82585 -1.02915,-3.01964 c -0.56603,-1.66068 -1.21849,-5.06449 -1.44983,-7.56454 z m 7.12361,23.3988 -6.15368,5.98714 9.30849,8.7805 5.79984,-5.92893 z m -12.40051,12.31952 c 3.09275,2.38196 7.17049,6.31419 14.23002,13.33452 -7.05952,-7.02032 -11.13724,-10.95256 -14.23002,-13.33452 z m 27.3104,2.49621 -5.9031,6.02561 12.18284,12.24308 5.9031,-6.02561 z m -85.43784,10.89044 c 0.62772,2.50332 1.57227,4.89321 2.83335,7.06236 -1.26108,-2.16915 -2.2056,-4.55906 -2.83335,-7.06236 z m 109.55396,3.37602 c -1.85974,-1e-5 -2.6574,0.62394 -8.93034,6.98543 -7.89483,8.00636 -8.50292,9.21908 -5.92437,11.81835 0.94154,0.94848 2.28418,1.72522 2.98472,1.72522 0.87507,0 3.57429,-2.30046 8.62356,-7.34939 6.27335,-6.27294 7.3494,-7.60744 7.3494,-9.11613 0,-2.47883 -1.5997,-4.06351 -4.10297,-4.06348 z m -72.26786,4.19612 c 1.79431,2.05925 2.78376,3.54627 3.28794,5.0334 -0.50414,-1.48711 -1.49366,-2.97416 -3.28794,-5.0334 z m 47.78271,12.28864 c 0.0256,2.40233 0.56859,4.39294 1.69079,6.20026 -1.1224,-1.80744 -1.66518,-3.79774 -1.69079,-6.20026 z m 33.49091,0.0526 c -0.73692,-1e-5 -2.39175,0.51271 -3.67723,1.14002 -6.21508,3.03284 -6.25522,12.08129 -0.0668,15.0415 7.46339,3.57006 15.06738,-4.37903 11.06156,-11.56373 -1.36938,-2.45607 -4.79508,-4.61779 -7.31751,-4.61779 z" style="display:inline;fill:#ffd000;fill-opacity:1;stroke:none;stroke-width:.666668;stroke-opacity:1" transform="matrix(1.4999988,0,0,1.4999988,3.0944138e-4,6.1e-5)"/><path id="path4" d="m 898.9337,101.61399 c -56.28078,1.44896 -103.24571,48.41553 -104.69594,104.69748 -0.0168,0.67032 -0.006,1.31215 10e-4,1.94794 l -18.7942,18.79499 c 0.14625,-26.10084 -9.70233,-52.24624 -29.57263,-72.11653 -0.14895,-0.14895 -0.30654,-0.29415 -0.45655,-0.44416 l 7.65458,-7.65457 c 3.72787,-3.72787 3.72787,-9.77173 0,-13.49841 -3.72786,-3.72902 -9.77184,-3.72908 -13.49842,0 l -21.59785,21.5979 c -37.17121,37.17124 -39.30233,96.29875 -6.42208,136.0072 l -26.82393,26.82473 c 1.31443,-30.12634 -9.49364,-60.68704 -32.44765,-83.63986 -0.1488,-0.1488 -0.30624,-0.29682 -0.45656,-0.44415 l 7.65459,-7.65457 c 3.72787,-3.72788 3.72783,-9.77057 0,-13.49841 -3.72785,-3.72784 -9.77096,-3.72709 -13.49763,7.8e-4 l -21.5979,21.59713 c -41.142,41.14318 -43.2714,106.7183 -6.44071,150.42492 l -31.20505,31.20505 c 0.23211,-3.07894 0.3519,-6.17802 0.35193,-9.29865 -3e-5,-32.4635 -12.64263,-62.98492 -35.59784,-85.93892 -0.15129,-0.15129 -0.30524,-0.29347 -0.45735,-0.4426 l 7.65846,-7.65848 c 3.72783,-3.72781 3.72784,-9.77172 0,-13.49838 -3.72785,-3.72784 -9.77175,-3.72785 -13.49841,0 l -21.59711,21.59792 c -22.95641,22.95517 -35.59711,53.47738 -35.59706,85.9397 0,29.26194 10.27457,56.94245 29.11138,78.9285 l -28.5525,28.55251 c 0.47745,-4.58395 0.72631,-9.21742 0.72631,-13.89062 0,-35.18409 -13.70135,-68.26158 -38.5806,-93.14081 -0.1513,-0.15131 -0.30526,-0.29349 -0.45733,-0.44261 l 7.65535,-7.65535 c 3.72786,-3.72784 3.72784,-9.77176 0,-13.49838 -3.72784,-3.72787 -9.77098,-3.72787 -13.49763,0 l -21.59015,21.59866 c -24.87925,24.87923 -38.57906,57.95677 -38.57904,93.14082 -2e-5,31.98252 11.32465,62.22301 32.07246,86.14978 L 307.59695,694.90642 c -3.72782,3.72783 -3.72782,9.7698 0,13.49762 1.86215,1.86333 4.30648,2.79596 6.74842,2.79596 2.44199,0 4.88508,-0.93144 6.74843,-2.79596 L 429.8019,599.69673 c 23.92551,20.74785 54.16605,32.07168 86.14976,32.07168 35.18408,0 68.26041,-13.70137 93.13849,-38.57825 l 21.59791,-21.59791 c 3.72787,-3.72786 3.72785,-9.77055 0,-13.49839 -3.72783,-3.72783 -9.77099,-3.72784 -13.49763,0 l -7.65612,7.65844 c -0.14895,-0.1513 -0.29142,-0.30615 -0.4426,-0.45733 -28.43209,-28.43209 -68.07169,-41.90223 -107.05624,-37.82793 l 28.57887,-28.5781 c 21.98721,18.83688 49.66658,29.11211 78.92849,29.11217 32.46354,-4e-5 62.9853,-12.64261 85.9405,-35.59782 l 21.5979,-21.59636 c 3.72785,-3.72784 3.72785,-9.77175 0,-13.49839 -3.72666,-3.72785 -9.76976,-3.72904 -13.49762,0 l -7.65612,7.65611 c -0.15003,-0.15235 -0.29019,-0.3057 -0.4426,-0.4581 -25.3793,-25.37932 -60.44582,-37.83007 -95.27868,-35.20715 l 31.23839,-31.23841 c 20.04534,16.9259 45.1504,26.16972 71.68943,26.16972 29.74414,0 57.7086,-11.58349 78.74092,-32.61583 l 21.59791,-21.59791 c 3.72781,-3.7279 3.72783,-9.77097 0,-13.49763 -3.72785,-3.72782 -9.77174,-3.72784 -13.4984,0 l -7.6538,7.65458 c -0.14775,-0.15003 -0.29592,-0.30832 -0.44417,-0.45655 -15.06134,-15.06138 -33.97253,-25.43605 -54.68579,-29.99973 -9.53693,-2.10144 -19.25019,-2.91931 -28.89902,-2.5014 l 26.7697,-26.76968 c 18.63797,15.43525 41.54392,23.1664 64.46582,23.16525 25.90435,-10e-4 51.81988,-9.86468 71.54137,-29.58734 l 21.59634,-21.5979 c 3.72787,-3.72785 3.72784,-9.77097 0,-13.49762 -3.73257,-3.7314 -9.77599,-3.73146 -13.50382,-10e-4 l 7.8e-4,-0.003 -7.65456,7.65456 c -0.1488,-0.15004 -0.29592,-0.30831 -0.44417,-0.45655 -19.47144,-19.47262 -45.41874,-29.82827 -72.01963,-29.66873 l 18.69497,-18.69498 c 0.28097,0.006 0.55178,0.015 0.83871,0.015 0.36537,0 0.73651,-0.001 1.11156,-0.015 56.28191,-1.4478 103.24726,-48.41616 104.69593,-104.6936 0.0441,-1.69545 -0.0228,-3.29418 -0.0844,-4.70747 -0.021,-0.45958 -0.0392,-0.9213 -0.0534,-1.38209 -0.16664,-5.02203 -4.19803,-9.05588 -9.22037,-9.22346 l -1.37744,-0.055 c -1.41446,-0.0597 -3.01503,-0.12677 -4.7152,-0.0837 z" style="display:inline;fill:#fff;fill-opacity:1;stroke:none;stroke-width:.413413"/><path id="path5" d="m 895.07966,120.92057 c -42.89098,3.29806 -78.23378,38.64276 -81.533,81.53376 42.891,-3.29924 78.23498,-38.64272 81.533,-81.53376 z M 731.92762,167.989 c -0.15092,0.1491 -0.30078,0.29769 -0.44958,0.44649 l -7.8e-4,7.7e-4 c -32.00637,32.00514 -32.00634,84.08242 0,116.0875 0.15007,0.1501 0.30915,0.28746 0.46044,0.43641 0.1473,-0.1455 0.29388,-0.29214 0.44028,-0.43719 32.00517,-32.0051 32.00512,-84.08236 0,-116.08749 -0.15002,-0.15 -0.29948,-0.29859 -0.45036,-0.44649 z m -93.58963,79.1905 c -0.15087,0.1491 -0.30156,0.29832 -0.45036,0.44727 v 0.002 c -35.97466,35.97587 -35.97505,94.51002 -10e-4,130.48582 0.15093,0.1479 0.31041,0.28746 0.46044,0.43641 0.1479,-0.1461 0.29464,-0.29212 0.44104,-0.43717 35.97467,-35.97585 35.97469,-94.51192 0,-130.48661 -0.1488,-0.1488 -0.29827,-0.29832 -0.44958,-0.44727 z m 151.8628,12.37601 c -7.06962,-0.0495 -14.20499,0.81629 -21.23978,2.63704 -4.71474,12.5488 -12.00215,24.33598 -21.86843,34.54906 31.5562,19.05074 73.26496,14.98885 100.47293,-12.21785 0.1491,-0.1497 0.29754,-0.30032 0.44648,-0.45036 -0.14909,-0.15093 -0.29768,-0.30081 -0.44648,-0.44961 -15.53764,-15.53585 -36.15586,-23.91988 -57.36472,-24.06828 z m -252.65277,74.01562 c -0.1503,0.1485 -0.29878,0.29676 -0.44881,0.44571 h -7.8e-4 c -19.34999,19.35003 -30.00669,45.07843 -30.00669,72.44131 0,27.36532 10.65474,53.09092 30.00592,72.44209 0.1488,0.1488 0.30806,0.28901 0.4581,0.43796 0.1473,-0.1455 0.2936,-0.29126 0.4403,-0.43796 10.55012,-10.54894 18.49222,-23.00108 23.55592,-36.57297 0.0344,-0.10125 0.0773,-0.19992 0.1155,-0.29997 4.15172,-11.23585 6.33604,-23.23156 6.33604,-35.56759 0,-27.36529 -10.6547,-53.09404 -30.00592,-72.44287 -0.001,-10e-6 -0.002,-7.8e-4 -0.002,-7.8e-4 -0.1494,-0.1494 -0.298,-0.29718 -0.44803,-0.44493 z m 164.07681,16.55326 c -8.20022,0.15792 -16.46549,1.41654 -24.59774,3.8207 -5.25187,13.28854 -13.16348,25.75173 -23.71947,36.59002 14.73155,9.49044 31.87986,14.60062 49.82253,14.60063 24.64472,3e-5 47.81736,-9.59717 65.2433,-27.02315 0.1491,-0.1497 0.29754,-0.29953 0.44649,-0.44958 -0.1491,-0.15091 -0.29769,-0.30156 -0.44649,-0.45036 -18.12723,-18.12903 -42.14802,-27.56204 -66.74862,-27.08826 z M 436.7596,419.96121 c -0.15031,0.1497 -0.3,0.29754 -0.4488,0.44649 l -7.8e-4,7.6e-4 c -21.27166,21.27288 -32.98747,49.55738 -32.98868,79.64088 10e-6,30.08459 11.71583,58.36804 32.98868,79.64086 0.15006,0.15007 0.30807,0.28824 0.45812,0.43719 0.1479,-0.14625 0.29403,-0.29172 0.44028,-0.43797 21.27292,-21.27167 32.98864,-49.55504 32.98867,-79.64086 0,-30.08345 -11.71578,-58.36681 -32.98867,-79.64086 -0.1494,-0.1494 -0.29795,-0.29859 -0.44882,-0.44649 z m 175.9474,28.11842 c -11.64024,-0.377 -23.41521,1.21894 -34.79944,4.90283 -5.87335,14.18626 -14.47878,27.23828 -25.53254,38.51702 16.76159,11.31685 36.49349,17.40668 57.16627,17.40668 27.36528,-2e-5 53.09165,-10.6547 72.44287,-30.00592 0.14939,-0.1494 0.2978,-0.29872 0.4457,-0.44959 -0.1485,-0.15031 -0.29676,-0.29875 -0.4457,-0.4488 v -0.003 c -18.71128,-18.7113 -43.66864,-29.0905 -69.27716,-29.9199 z m -95.08412,97.77775 c -13.08327,-0.21207 -26.29246,1.84502 -39.0139,6.30429 -6.37339,14.7947 -15.50354,28.41732 -27.12625,40.23319 18.77016,13.1647 41.06683,20.28244 64.46971,20.28247 30.08467,-4e-5 58.36797,-11.71462 79.64087,-32.98868 0.15002,-0.15001 0.29859,-0.29794 0.44649,-0.44881 -0.1485,-0.15032 -0.29769,-0.30078 -0.44649,-0.44958 v -10e-4 c -21.01555,-21.0156 -49.18722,-32.46482 -77.97043,-32.93138 z" style="display:inline;fill:#ffd000;fill-opacity:1;stroke-width:.413413"/></svg>

<svg xmlns="http://www.w3.org/2000/svg" xml:space="preserve" id="svg1" width="4608" height="3072" version="1.1" viewBox="0 0 1219.2 812.8"><defs id="defs1"><style id="style1">.cls-1{fill:#0283c0}.cls-2{fill:#fff}.cls-3{fill:#ef483f}</style></defs><path id="rect1" d="M 0 0 L 0 812.8 L 1219.2 812.8 L 1219.2 0 L 0 0 z" style="fill:#000;fill-rule:evenodd;stroke:none;stroke-width:8.46667;stroke-linecap:round;stroke-linejoin:round;fill-opacity:1"/><path id="path4" d="M 898.93376 101.61395 C 842.65304 103.06291 795.68805 150.02954 794.23783 206.31144 C 794.22103 206.98176 794.23186 207.62385 794.23886 208.25964 L 775.44466 227.05436 C 775.59091 200.95354 765.74207 174.8081 745.87179 154.93783 C 745.72284 154.78888 745.56549 154.64394 745.41548 154.49393 L 753.0698 146.8391 C 756.79766 143.11123 756.79766 137.06737 753.0698 133.3407 C 749.34194 129.61168 743.29797 129.61162 739.57139 133.3407 L 717.97375 154.93886 C 680.80257 192.11007 678.67118 251.23765 711.5514 290.94607 L 684.72771 317.77078 C 686.04214 287.64447 675.23407 257.08373 652.28008 234.13093 C 652.13128 233.98213 651.97358 233.83384 651.82326 233.68651 L 659.47809 226.0322 C 663.20596 222.30432 663.20592 216.26163 659.47809 212.5338 C 655.75025 208.80596 649.70687 208.80645 645.98021 212.53431 L 624.38256 234.13145 C 602.98284 255.53178 592.23757 283.54232 591.9401 311.64713 L 703.93223 424.1922 C 733.37572 423.98522 761.03223 412.45741 781.87476 391.61486 L 803.47292 370.01721 C 807.20073 366.28931 807.20075 360.24598 803.47292 356.51932 C 799.74507 352.79151 793.70118 352.79149 789.97452 356.51932 L 782.32072 364.17415 C 782.17297 364.02412 782.02456 363.86556 781.87631 363.71733 C 766.81498 348.65597 747.90399 338.28129 727.19076 333.71761 C 717.65383 331.61618 707.94056 330.79857 698.29174 331.21648 L 725.06117 304.44653 C 743.69912 319.88177 766.60512 327.61319 789.527 327.61204 C 815.43133 327.61104 841.3469 317.74734 861.06837 298.0247 L 882.66499 276.42654 C 886.39285 272.69869 886.39282 266.65582 882.66499 262.92917 C 878.93242 259.19777 872.88873 259.19768 869.1609 262.92814 L 869.16193 262.92504 L 861.5071 270.57935 C 861.3583 270.42931 861.21145 270.27129 861.0632 270.12305 C 841.59178 250.65045 815.64417 240.29452 789.04331 240.45406 L 807.73829 221.75907 C 808.01926 221.76507 808.29007 221.77406 808.577 221.77406 C 808.94237 221.77406 809.31351 221.77307 809.68856 221.75907 C 865.97042 220.31128 912.93583 173.34311 914.3845 117.06572 C 914.4286 115.37027 914.36186 113.77129 914.30026 112.358 C 914.27926 111.89842 914.26124 111.43696 914.24704 110.97617 C 914.0804 105.95415 910.04875 101.92003 905.02641 101.75245 L 903.64924 101.69767 C 902.23478 101.63797 900.63393 101.57088 898.93376 101.61395 z M 493.85203 369.26118 C 490.04761 381.1361 487.99913 393.63393 487.99915 406.46201 C 487.99915 435.72392 498.27376 463.4045 517.11056 485.39053 L 488.55829 513.94331 C 489.03574 509.35936 489.28435 504.72588 489.28435 500.05268 C 489.28435 464.86863 475.58298 431.7908 450.70376 406.9116 C 450.55246 406.76029 450.39849 406.61837 450.24642 406.46925 L 457.90177 398.8139 C 461.62962 395.08606 461.6296 389.04212 457.90177 385.3155 C 454.17393 381.58763 448.13104 381.58763 444.4044 385.3155 L 422.81399 406.91418 C 397.93476 431.79339 384.23492 464.87073 384.23494 500.05475 C 384.23492 532.03724 395.55962 562.27778 416.30741 586.20453 L 307.59673 694.90642 C 303.86891 698.63425 303.86891 704.67597 307.59673 708.40379 C 309.45888 710.26712 311.90322 711.2 314.34515 711.2 C 316.78714 711.2 319.23023 710.26831 321.09358 708.40379 L 429.80167 599.69673 C 453.72716 620.44456 483.96777 631.76816 515.95145 631.76816 C 551.1355 631.76816 584.2119 618.067 609.08995 593.19015 L 630.68812 571.5925 C 634.41598 567.86464 634.41596 561.82194 630.68812 558.0941 C 626.96029 554.36627 620.91687 554.36626 617.19023 558.0941 L 609.53437 565.75255 C 609.38542 565.60125 609.24268 565.44639 609.0915 565.29521 C 580.65944 536.86315 541.02002 523.39273 502.03551 527.46703 L 530.61412 498.88893 C 552.60131 517.72579 580.28076 528.0013 609.54264 528.00136 C 622.16733 528.00135 634.47881 526.03492 646.18536 522.34796 L 493.85203 369.26118 z" style="display:inline;fill:#ffd080;fill-opacity:1;stroke:none;stroke-width:.413413"/><path id="path1" d="M 315.71406 101.6 C 309.7022 101.60045 304.82864 106.47378 304.82791 112.48564 L 304.82791 150.8001 C 304.82755 153.67819 305.96687 156.43934 307.9967 158.47973 L 488.27976 339.65472 L 675.76134 528.06441 L 724.36457 576.90794 L 717.97891 583.44604 C 714.95343 586.54352 711.95735 589.7988 709.49881 592.63566 C 708.19315 594.14223 707.05608 595.55521 706.19255 596.66487 C 705.76079 597.2197 705.39899 597.69452 705.10735 598.08856 C 704.81572 598.48261 705.28748 597.48955 704.01077 599.71895 C 695.06323 615.34314 694.97979 635.14689 703.94515 650.56804 C 707.75969 657.12963 712.29473 661.26227 716.81413 665.89941 C 716.84733 665.93301 716.88073 665.96641 716.91438 665.99966 L 724.90407 674.08754 C 729.73862 678.98132 732.80552 681.97446 737.17568 684.24661 C 740.69684 686.07739 745.96369 686.74805 750.03587 686.45112 C 761.71783 685.59927 771.86156 675.44162 772.70012 663.75535 L 772.70012 663.75483 L 772.70012 663.75432 L 772.70012 663.7538 L 772.70012 663.75328 L 772.70012 663.75277 C 772.84667 661.71043 773.02782 659.91866 772.71511 657.40742 C 772.40214 654.89621 771.32521 652.21392 770.35298 650.46779 C 767.74848 645.79021 764.44161 642.5461 758.3134 636.27847 C 755.39613 633.29491 752.65382 630.34025 750.63377 628.04229 C 749.6162 626.88472 748.79857 625.91251 748.26595 625.23574 C 748.11895 625.04889 748.25895 625.26375 748.1564 625.14375 C 748.33331 624.75059 748.74247 624.09148 750.06533 623.01985 C 758.03156 616.5665 768.6749 614.23474 778.20521 616.73703 C 782.34022 617.82273 784.52467 618.65927 788.46815 621.69642 C 792.62069 624.89452 798.6477 630.6691 809.22037 641.18309 L 809.22347 641.18309 L 827.16656 659.02334 L 827.05184 659.71477 C 826.30315 664.23238 825.89877 668.50612 827.11799 673.12842 C 828.33764 677.75171 831.23762 681.53839 834.04832 684.29001 C 839.69648 689.81939 846.03221 691.98266 853.72722 691.24101 C 857.97243 702.67542 868.89739 710.52108 881.26766 711.14729 C 883.61915 711.26624 885.72833 711.17069 887.54996 710.98296 C 889.37154 710.79527 890.14129 710.92206 892.98839 709.85228 C 902.65215 706.22162 910.22056 698.38099 913.06985 688.70938 C 915.8698 679.20525 914.09775 668.7011 908.2996 660.75347 C 906.0474 657.66637 903.63926 655.55886 900.64528 653.42988 C 899.01313 652.26929 897.488 651.41107 896.11378 650.73496 C 895.32754 650.34814 894.81448 650.04468 894.03897 649.74174 L 894.07049 649.0963 C 894.23325 645.67805 894.20729 642.14951 892.81682 638.36827 C 891.42633 634.58705 888.92559 631.72411 886.65492 629.55175 C 882.92289 625.98117 879.14024 624.41796 874.46859 623.40381 C 870.60627 622.56536 867.21661 622.5725 863.39691 623.54747 C 863.20181 623.40167 863.29568 623.51907 862.39232 622.71858 C 859.68837 620.3222 854.54537 615.17915 845.12929 605.62195 C 829.7337 589.99551 824.71116 584.16616 823.5394 581.82185 C 816.49278 567.72413 818.31692 555.26463 829.79845 542.17931 C 838.84592 531.86805 843.28205 520.31783 843.30098 506.92461 C 843.31598 497.01413 840.45082 487.17928 835.08494 479.05241 C 833.17048 476.15288 831.52726 474.52951 828.78559 471.52729 C 826.0439 468.5251 822.71102 465.03312 819.40011 461.76355 C 816.14014 458.54424 812.90065 455.47752 810.14228 453.03591 C 808.76215 451.81424 807.538 450.77168 806.39419 449.88158 C 805.8425 449.4523 805.58686 449.30513 805.22992 449.06923 C 805.48769 449.29492 805.56813 449.32156 806.23554 450.01077 C 806.5131 450.29741 807.39317 451.42395 807.39258 451.42309 C 807.3923 451.42267 808.28519 452.99597 808.28503 452.99561 C 808.28501 452.99557 808.37513 453.30535 808.40234 453.39713 C 807.34418 450.81835 805.33719 448.74367 802.79493 447.60059 C 802.64478 447.53749 802.61084 447.49582 801.84821 447.24454 C 801.65753 447.18174 801.41891 447.10031 800.93767 446.98615 C 800.69706 446.92905 800.39566 446.85893 799.9274 446.7934 C 799.8936 446.7884 799.81262 446.7922 799.76669 446.7872 C 797.01929 446.10413 794.82812 446.02305 792.50305 446.06941 C 789.3479 446.13231 786.94328 445.82791 782.27473 448.00676 C 773.92397 451.90416 768.07717 461.71666 768.07715 471.27356 C 768.07715 474.82495 769.37167 480.34078 771.60096 483.92705 C 774.26403 488.21108 777.89236 492.10037 783.96455 498.33444 C 787.47636 501.93983 789.97171 504.45145 791.40957 506.20011 C 792.87607 507.98358 792.60539 508.00707 792.60382 507.61863 L 792.60382 507.62173 C 792.60282 507.19132 792.87826 507.22606 791.46073 508.94516 C 790.04642 510.66035 787.57838 513.12649 784.09374 516.67957 L 778.1308 522.76344 L 733.03433 477.44424 L 539.18983 282.64321 L 362.22957 104.80911 C 360.18654 102.75524 357.40917 101.60033 354.51221 101.6 L 315.71406 101.6 z M 805.22992 449.06923 L 805.22992 449.06871 C 805.00588 448.92066 804.59817 448.62162 804.49973 448.55867 C 804.43603 448.51787 804.39817 448.49257 804.48785 448.55247 C 804.55115 448.59437 804.62958 448.54347 805.2294 449.06923 L 805.22992 449.06923 z" style="display:inline;fill:#fff;fill-opacity:1;stroke:none;stroke-width:1"/></svg>
